X: 241
T: Belki Bir Sabah Geleceksin
C: Şekip Ayhan Özışık
O: Turkey
F: http://compmusic.upf.edu/node/140
N: rast--sarki--duyek--belki_bir_sabah--sekip_ayhan_ozisik
N: makam= rast
N: form= sarki
N: usul= duyek = 8/4
M: 8/4
L: 1/16
K: C _1/4B ^f  
Q: 1/4=132
%%MIDI tuningsystem comma53
D2 G4 A2 B2 A2 G2 F2  | GF E6 D2 EF G4  | \
w:  ARANAĞME  |   | 
G2 =B6 c2 B2 A2 ^G2  | A8 D2 F2 A4  | 
w:   |   | 
D2 G4 A2 B2 A2 G2 F2  | GF E14  | D2 G4 A2 B2 A2 G2 F2  | G16  | \
w:   |   |   |   | 
D2 G4 A2 B2 A2 G2 F2  | 
w:  ARANAĞME  | 
GF E6 D2 EF G4  | G2 =B6 c2 B2 A2 ^G2  | \
w:   |   | 
A8 D2 F2 A4  | D2 G4 A2 B2 A2 G2 F2  | 
w:   |   | 
GF E14  | D2 G4 A2 B2 A2 G2 F2  | G16  | \
w:   |   |   | 
z2 G4 G2 A4 B4  | A2 G6 GF ED G4  | 
w:  Bel ki  bir   |  sa bah  SAZ  | 
z4 A2 B2 c2 BA A4  | z2 BA B2 c2 d3e dc BA  | \
w:  ge le cek *  *  sin   |  lâ *  *  *  kin   | 
G2 d6 e2 f2 g4  | 
w:  va kit   | 
z2 {g}=f2 e2 d2 c3B d2 {f}ed  | d4 e3/2d/ e2 f3/2e/ f2 g4  | \
w:  *  geç *  *  miş  *  o *  la  |  cak    | 
z2 a2 g2 =f2 e3d g2 fe  | 
w:  geç *  *  miş  *  o la  | 
d16  | z=f ed ze dc zd cB zc BA  | GF GA Bc de dc Bc d4  | 
w:  cak    |  SAZ  |   | 
d2 g4 ab c'2 b2 a2 g2  | g=f e4 d2 {f}d2 ed cB c2  | \
w:  Gö nül  *  *  hic *  ran   |  şa *  ra *  *  bın *  *  dan   | 
d2 e2 f2 g2 a2 g2 =f2 e2  | 
w:  yu dum  *  yu dum   | 
d4 c4 B4 c2 BA  | A8 B3A G4  | d2 e2 f2 g2 a2 g2 =f2 e2  | \
w:  iç miş  *  o la  |  cak    |  yu dum  *  yu dum   | 
d2 cB e2 dc B3A c2 BA  | 
w:  iç *  *  miş  *  *  *  *  o la  | 
G16  | z=f ed ze dc zd cB zc BA  | GF GA Bc de dc Bc d4  | 
w:  cak    |  SAZ  |   | 
d2 g4 ab c'2 b2 a2 g2  | g=f e4 d2 {f}d2 ed cB c2  | \
w:  Gö nül  *  *  hic *  ran   |  şa *  ra *  *  bın *  *  dan   | 
d2 e2 f2 g2 a2 g2 =f2 e2  | 
w:  yu dum  *  yu dum   | 
d4 c4 B4 c2 BA  | A8 B3A G4  | d2 e2 f2 g2 a2 g2 =f2 e2  | \
w:  iç miş  *  o la  |  cak    |  yu dum  *  yu dum   | 
d2 cB e2 dc B3A c2 BA  | 
w:  iç *  *  miş  *  *  *  *  o la  | 
G16  | z=f ed ze dc zd cB zc BA  | GF GA Bc de dc B^A B4  | 
w:  cak    |  SAZ  |   | 
G2 B4 B2 ^A3B c4  | B2 d4 d2 c4 B4  | \
w:  Gü zel  de  ol *  sa   |  i nan mam  ar tık   | 
cB ^A4 {d}c2 B3A G2 A2  | B6 d2 ^c2 ed d4  | 
w:  se *  nin  *  *  söz *  le ri  |  ne  SAZ  | 
B2 d6 e2 f2 g4  | z2 =f2 e2 d2 c3B d2 {f}ed  | \
w:  ba har   |  bit *  *  miş  *  o *  la  | 
d4 e3/2d/ e2 f3/2e/ f2 g4  | 
w:  cak   | 
z2 a2 g2 =f2 e3d g2 fe  | d16  | z=f ed ze dc zd cB zc BA  | 
w:  bit *  *  miş  *  o la  |  cak   |  SAZ  | 
GF GA Bc de dc Bc d4  | d2 g4 ab c'2 b2 a2 g2  | 
w:   |  Gö nül  *  *  hic *  ran   | 
g=f e4 d2 {f}d2 ed cB c2  | d2 e2 f2 g2 a2 g2 =f2 e2  | \
w:  şa *  ra *  *  bın *  *  dan   |  yu dum  *  yu dum   | 
d4 c4 B4 c2 BA  | 
w:  iç miş  *  o la  | 
A8 B3A G4  | d2 e2 f2 g2 a2 g2 =f2 e2  | \
w:  cak    |  yu dum  *  yu dum   | 
d2 cB e2 dc B3A c2 BA  | 
w:  iç *  *  miş  *  *  *  *  o la  | 
G16  | |


